speaky-school/img/figures-bottom2.svg

<svg width="290" height="264" viewBox="0 0 290 264" fill="none" xmlns="http://www.w3.org/2000/svg">
<path fill-rule="evenodd" clip-rule="evenodd" d="M35 4C39.2858 15.5823 48.4177 24.7142 60 29C48.4177 33.2858 39.2858 42.4177 35 54C30.7142 42.4177 21.5823 33.2858 10 29C21.5823 24.7142 30.7142 15.5823 35 4ZM110 29C98.4177 33.2858 89.2858 42.4177 85 54C80.7142 42.4177 71.5823 33.2858 60 29C71.5823 24.7142 80.7142 15.5823 85 4C89.2858 15.5823 98.4177 24.7142 110 29ZM110 29C121.582 24.7142 130.714 15.5823 135 4C139.286 15.5823 148.418 24.7142 160 29C148.418 33.2858 139.286 42.4177 135 54C130.714 42.4177 121.582 33.2858 110 29Z" fill="#236967"/>
<circle cx="281" cy="124" r="7" transform="rotate(-180 281 124)" fill="#038192"/>
<circle cx="286" cy="166" r="4" transform="rotate(-180 286 166)" fill="#FC8B4C"/>
<circle cx="55" cy="259" r="5" fill="#FDD503"/>
<circle cx="32" cy="246" r="2" fill="#236967"/>
<circle cx="2" cy="79" r="2" fill="#FDD503"/>
<circle cx="182" cy="2" r="2" fill="#FDD503"/>
<circle cx="30" cy="166" r="30" fill="#038192"/>
</svg>

<svg width="290" height="264" fill="none" xmlns="http://www.w3.org/2000/svg"><path fill-rule="evenodd" clip-rule="evenodd" d="M35 4a42.314 42.314 0 0 0 25 25 42.314 42.314 0 0 0-25 25 42.314 42.314 0 0 0-25-25A42.314 42.314 0 0 0 35 4zm75 25a42.314 42.314 0 0 0-25 25 42.314 42.314 0 0 0-25-25A42.314 42.314 0 0 0 85 4a42.314 42.314 0 0 0 25 25zm0 0a42.315 42.315 0 0 0 25-25 42.315 42.315 0 0 0 25 25 42.315 42.315 0 0 0-25 25 42.315 42.315 0 0 0-25-25z" fill="#236967"/><circle cx="281" cy="124" r="7" transform="rotate(-180 281 124)" fill="#038192"/><circle cx="286" cy="166" r="4" transform="rotate(-180 286 166)" fill="#FC8B4C"/><circle cx="55" cy="259" r="5" fill="#FDD503"/><circle cx="32" cy="246" r="2" fill="#236967"/><circle cx="2" cy="79" r="2" fill="#FDD503"/><circle cx="182" cy="2" r="2" fill="#FDD503"/><circle cx="30" cy="166" r="30" fill="#038192"/></svg>
